images/usdt.svg

<svg height="250" viewBox="0 0 250 250" width="250" xmlns="http://www.w3.org/2000/svg"><g fill-rule="evenodd"><path d="m250 125c0 69.035156-55.964844 125-125 125s-125-55.964844-125-125 55.964844-125 125-125 125 55.964844 125 125zm0 0" fill="#26a17b"/><path d="m140.015625 135.804688v-.015626c-.859375.0625-5.289063.328126-15.171875.328126-7.890625 0-13.445312-.234376-15.398438-.328126v.023438c-30.375-1.335938-53.046874-6.625-53.046874-12.953125 0-6.320313 22.671874-11.609375 53.046874-12.96875v20.65625c1.984376.140625 7.671876.476563 15.53125.476563 9.429688 0 14.15625-.390626 15.039063-.46875v-20.648438c30.3125 1.351562 52.929687 6.640625 52.929687 12.953125 0 6.328125-22.617187 11.601563-52.929687 12.945313m0-28.046876v-18.484374h42.296875v-28.1875h-115.164062v28.1875h42.296874v18.476562c-34.375 1.578125-60.226562 8.390625-60.226562 16.546875s25.851562 14.960937 60.226562 16.546875v59.234375h30.570313v-59.25c34.320313-1.578125 60.109375-8.382813 60.109375-16.53125s-25.789062-14.953125-60.109375-16.539063" fill="#fff"/></g></svg>

<svg xmlns="http://www.w3.org/2000/svg" xmlns:xlink="http://www.w3.org/1999/xlink" width="250px" height="250px" viewBox="0 0 250 250" version="1.1">
<g id="surface1">
<path style=" stroke:none;fill-rule:evenodd;fill:rgb(14.901961%,63.137257%,48.235294%);fill-opacity:1;" d="M 250 125 C 250 194.035156 194.035156 250 125 250 C 55.964844 250 0 194.035156 0 125 C 0 55.964844 55.964844 0 125 0 C 194.035156 0 250 55.964844 250 125 Z M 250 125 "/>
<path style=" stroke:none;fill-rule:evenodd;fill:rgb(100%,100%,100%);fill-opacity:1;" d="M 140.015625 135.804688 L 140.015625 135.789062 C 139.15625 135.851562 134.726562 136.117188 124.84375 136.117188 C 116.953125 136.117188 111.398438 135.882812 109.445312 135.789062 L 109.445312 135.8125 C 79.070312 134.476562 56.398438 129.1875 56.398438 122.859375 C 56.398438 116.539062 79.070312 111.25 109.445312 109.890625 L 109.445312 130.546875 C 111.429688 130.6875 117.117188 131.023438 124.976562 131.023438 C 134.40625 131.023438 139.132812 130.632812 140.015625 130.554688 L 140.015625 109.90625 C 170.328125 111.257812 192.945312 116.546875 192.945312 122.859375 C 192.945312 129.1875 170.328125 134.460938 140.015625 135.804688 M 140.015625 107.757812 L 140.015625 89.273438 L 182.3125 89.273438 L 182.3125 61.085938 L 67.148438 61.085938 L 67.148438 89.273438 L 109.445312 89.273438 L 109.445312 107.75 C 75.070312 109.328125 49.21875 116.140625 49.21875 124.296875 C 49.21875 132.453125 75.070312 139.257812 109.445312 140.84375 L 109.445312 200.078125 L 140.015625 200.078125 L 140.015625 140.828125 C 174.335938 139.25 200.125 132.445312 200.125 124.296875 C 200.125 116.148438 174.335938 109.34375 140.015625 107.757812 "/>
</g>
</svg>
